dist/img/icons/activity/comment.svg

<svg width="23" height="23" viewBox="0 0 23 23" fill="none" xmlns="http://www.w3.org/2000/svg">
<path d="M11.5 1.41663C5.14914 1.41663 0 5.54631 0 10.6406C0 13.5521 1.68546 16.144 4.3125 17.8346V22.5L9.35021 19.6978C10.0474 19.8033 10.7647 19.8645 11.5 19.8645C17.8516 19.8645 23 15.7349 23 10.6406C23 5.54631 17.8516 1.41663 11.5 1.41663ZM11.5 18.5468C10.6605 18.5468 9.84975 18.4572 9.07061 18.305L5.68671 20.1696L5.732 17.1138C3.13807 15.6835 1.4375 13.3195 1.4375 10.6406C1.4375 6.27437 5.94261 2.73433 11.5 2.73433C17.0574 2.73433 21.5625 6.27437 21.5625 10.6406C21.5625 15.0068 17.0574 18.5468 11.5 18.5468Z" fill="#A7B0BC"/>
</svg>

<svg width="23" height="23" fill="none" xmlns="http://www.w3.org/2000/svg"><path d="M11.5 1.417C5.15 1.417 0 5.547 0 10.64c0 2.911 1.685 5.503 4.313 7.194V22.5l5.037-2.802c.697.105 1.415.166 2.15.166 6.352 0 11.5-4.13 11.5-9.223 0-5.095-5.148-9.224-11.5-9.224zm0 17.13c-.84 0-1.65-.09-2.43-.242L5.688 20.17l.045-3.056c-2.594-1.43-4.295-3.795-4.295-6.473 0-4.367 4.506-7.907 10.063-7.907s10.063 3.54 10.063 7.907c0 4.366-4.506 7.906-10.063 7.906z" fill="#A7B0BC"/></svg>
